X:1
T:Bourrée BWV 1010
T:BWV 1010
T:Bach for Solo Flute (VII)
T:Johann Sebastian Bach (1685-1750)
T:Bourrée I from Suite No. 4 for Cello (BWV 1010) Transcription for Flute 
T:Transcription by Felix Scharpf
T:twoflutes 2020 / Felix Scharpf / Johann_Sebastian_Bach_signature.svg-2.png
T:twoflutes 2020 / Felix Scharpf / Johann_Sebastian_Bach_signature.svg-2.png
C:J. S. Bach
Z:twoflutes 2020 / Felix Scharpf / Johann_Sebastian_Bach_signature.svg-2.png
L:1/8
Q:1/2=64
M:2/2
K:Eb
V:1 treble nm="Flöte" snm="Fl."
V:1
"^Allegro moderato"!mf! (e/f/g/a/ | b2) .c'.a b2 .c'.g | !tenuto!a2 !tenuto!f2 .F2!mp! (d/e/f/g/ | %3
 a2) .b.g a2 .b.f | !tenuto!g2 !tenuto!e2 .E2!mf! (e/f/g/a/ | b2) (B/c/d/e/ f2) a2 | %6
 (ag)(fe) f2!p! (e/f/g/a/ | b2)!mp! (B/c/d/e/ f2) a2 | (ag)(fe) f2!mf! (f/g/=a/b/ | %9
 c'2) (=a/b/c'/d'/ e'2)!p! (f/g/a/b/ | c'2) (=a/b/c'/d'/ e'2)!mf! .d'.c' | (d'b).g.b (ec').f.=a | %12
 !tenuto!b2 !tenuto!f2 .B2 ::!mf! (B/c/d/e/ | f2) .g.e f2 .b.f | %15
 !tenuto!g2 !tenuto!e2 .E2 (_a/!mp!g/f/e/ | d2) (f/e/d/c/ =B2) (d/c/B/=A/ | %17
 .G).d.f.=b d'2!mf! (g/f/e/d/ | e2) (C/D/E/F/ G2)!mp! (d'/c'/=b/=a/ | %19
 =b2)!mf! (G/=A/)=B/c/ d2!mp! (g'/f'/e'/d'/ | e'2) (e'/d'/c'/=b/ c'2) (c'/_b/a/g/ | %21
 a2) (a/g/f/e/ d2)!mf! .c'.=b | (c'a).f.a (dc').g.=b | !tenuto!c'2 !tenuto!G2 .C2 (c/d/=e/f/ | %24
 g2) .a.f g2 .c'.g | (bagf) (e'd'c'b) | e'2!mp! (e/f/g/a/ b2) c'2 | (ed)(cd) B2!mf! (B/c/d/e/ | %28
 f2) (d/e/f/g/ a2)!p! (B/c/d/e/ | f2) (d/e/f/g/ a2)!mf! (e/f/g/a/ | %30
 b2) (g/a/b/c'/ _d'2)!p! (e/f/g/a/ | b2) (g/a/b/c'/ _d'2)!mf! (c'b) | %32
 (c'b)(ba) .b.g !tenuto!G(g/a/) | .b(g/a/) .b(a/g/) .a.f !tenuto!Fa | %34
 (g/f/e/d/ .e)b (g/f/e/d/ .e)!mp!e' | (a/g/f/g/ a/g/f/g/ a/g/f/e/ d/c/B/A/) | %36
 .G!mf!.e.c'.a b2 .c'.g | !tenuto!a2 !tenuto!f2 .F2 (c'/b/a/g/ | f2)!p! (a/g/f/e/ d2) (f/e/d/c/ | %39
 .B)!mp!.d.f._a f'2 (e'/d'/c'/b/ | e'2)!mf! (e/f/g/a/ b2) c'2 | (ed).c.d B2!mp! (e'/d'/c'/b/ | %42
 e'2)!mf! (e/f/g/a/ b2) c'2 | (_d'/c'/.b) c'2- c'(b/a/ b/a/.g) | (a/g/.f) g2- g(f/e/ f/e/.d) | %45
 .e.B.G.B .E2 (B/c/d/e/ | f2) (d/e/f/g/ a2)!p! (B/c/d/e/ | f2) (d/e/f/g/ a2)!mf! .g.f | %48
 (gb).e'.g (fe).B.d' | e'6 :| %50

